client/public/game_modes/bouncing_ball/frame16.svg

<svg xmlns="http://www.w3.org/2000/svg" width="437" height="483" fill="none"><path fill="#EDEDED" d="M239 191h20v20h-20v-20Zm20 20h20v20h-20v-20Zm0 20h20v20h-20v-20Zm-20 0h20v20h-20v-20Zm0-20h20v20h-20v-20Zm-20 0h20v20h-20v-20Zm0-20h20v20h-20v-20Zm0-20h20v20h-20v-20Z"/><path stroke="#EDEDED" stroke-width="5" d="M239 191h20v20m-20-20v20m0-20h-20m20 0v-20h-20v20m40 20h-20m20 0h20v20m-20-20v20m-20-20v20m0-20h-20m60 20h-20m20 0v20h-20m0-20v20m0-20h-20m20 20h-20v-20m0 0h-20v-20m0 0v-20"/><path fill="#949494" d="M199 371h20v20h-20v-20Zm60 0h20v20h-20v-20Zm-20 0h20v20h-20v-20Zm-20 0h20v20h-20v-20Zm-40-20h20v20h-20v-20Zm-20 0h20v20h-20v-20Zm0 20h20v20h-20v-20Zm-20-40h20v20h-20v-20Zm0 20h20v20h-20v-20Zm-20-40h20v20h-20v-20Zm0-20h20v20h-20v-20Zm0-80h20v20h-20v-20Zm0 60h20v20h-20v-20Zm0-20h20v20h-20v-20Zm0-20h20v20h-20v-20Zm60 140h20v20h-20v-20Z"/><path stroke="#949494" stroke-width="5" d="M199 371h20m-20 0v20m0-20v-20h-20m20 20h-20m40 0v20m0-20h20m-20 20h-20m20 0h20m-40 0h-20m80-20h20v20h-20m0-20v20m0-20h-20m20 20h-20m0-20v20m-60-40v20m0-20h-20m20 20h-20m20 0v20m-20-40v20m0-20v-20h-20m20 20h-20m20 20v20h20m-20-20h-20v-20m0-20v20m0-20v-20m0 20h-20v-20m0 0h20m-20 0v-20m20 20v-20m-20 0h20m-20 0v-20m20 20v-20m0-40v-20h-20v20m20 0h-20m20 0v20m-20-20v20m0 20h20m-20 0v-20m20 20v-20m-20 0h20"/><path fill="#D9D9D9" d="M139 171h20v20h-20v-20Zm40-20h20v20h-20v-20Zm0 20h20v20h-20v-20Zm20-20h20v20h-20v-20Zm40 0h20v20h-20v-20Zm20 0h20v20h-20v-20Zm0 20h20v20h-20v-20Zm20 0h20v20h-20v-20Zm0 20h20v20h-20v-20Zm20 60h20v20h-20v-20Zm0-20h20v20h-20v-20Zm0 40h20v20h-20v-20Zm0 40h20v20h-20v-20Zm0-100h20v20h-20v-20Zm0 80h20v20h-20v-20Zm-20-20h20v20h-20v-20Zm0-20h20v20h-20v-20Zm0 40h20v20h-20v-20Zm0 40h20v20h-20v-20Zm-20 20h20v20h-20v-20Zm20 0h20v20h-20v-20Zm-120-20h20v20h-20v-20Zm40 20h20v20h-20v-20Zm-40-60h20v20h-20v-20Zm-20 0h20v20h-20v-20Zm20-20h20v20h-20v-20Zm-20-20h20v20h-20v-20Zm0-20h20v20h-20v-20Zm20 0h20v20h-20v-20Zm-20-20h20v20h-20v-20Zm20 0h20v20h-20v-20Zm-20-20h20v20h-20v-20Zm20 60h20v20h-20v-20Zm0-60h20v20h-20v-20Zm-20 80h20v20h-20v-20Zm20 40h20v20h-20v-20Zm-20 0h20v20h-20v-20Zm40 0h20v20h-20v-20Zm0 20h20v20h-20v-20Zm20 0h20v20h-20v-20Zm20 20h20v20h-20v-20Zm20 0h20v20h-20v-20Zm40-40h20v20h-20v-20ZM179 191h20v20h-20v-20Zm0 40h20v20h-20v-20Zm0-20h20v20h-20v-20Zm0 40h20v20h-20v-20Zm0 40h20v20h-20v-20Zm0-20h20v20h-20v-20Zm20-80h20v20h-20v-20Zm0 20h20v20h-20v-20Zm0 40h20v20h-20v-20Zm0-20h20v20h-20v-20Zm0 40h20v20h-20v-20Zm0 40h20v20h-20v-20Zm0-20h20v20h-20v-20Zm20-60h20v20h-20v-20Zm0 40h20v20h-20v-20Zm0-20h20v20h-20v-20Zm0 40h20v20h-20v-20Zm0 40h20v20h-20v-20Zm0-20h20v20h-20v-20Zm20-60h20v20h-20v-20Zm0 40h20v20h-20v-20Zm0-20h20v20h-20v-20Zm0 60h20v20h-20v-20Zm0-20h20v20h-20v-20Zm20-60h20v20h-20v-20Zm0 20h20v20h-20v-20Zm0 40h20v20h-20v-20Zm0 20h20v20h-20v-20Zm0-40h20v20h-20v-20Zm-60-120h20v20h-20v-20Zm20-20h20v20h-20v-20Zm-60 0h20v20h-20v-20Zm0 20h20v20h-20v-20Zm80 0h20v20h-20v-20Zm20 20h20v20h-20v-20Zm20 20h20v20h-20v-20Zm0 20h20v20h-20v-20Z"/><path stroke="#D9D9D9" stroke-width="5" d="M159 171h-20v20m20-20v20m0-20h20m-20 0v-20h20m-20 40h-20m20 0v20m0-20h20m-40 0v20m40-60h20m-20 0v20m20-20v20m0-20h20m-20 20h-20m20 0v20m0-20h20m-40 0v20m20 0h-20m20 0v20m0-20h20m-40 0v20m40-60v20m0-20h20m-20 20v20m0-20h20m0-20h20m-20 0v20m20-20v20m0-20h20v20m-20 0h-20m20 0h20m-20 0v20m-20-20v20h20m20-20v20m0-20h20v20m-20 0h-20m20 0h20m-20 0v20m-20-20v20h20m20-20v20m0 0h-20m20 0h20v20m-20-20v20m-20-20v20m20 20h20m-20 0v20m0-20v-20m0 20h-20m40 0v20m0-20v-20m0 40h-20m20 0v20m-20-20v20m0-20h-20m20-40h20m-20 0h-20m40 60h-20m20 0v20m-20-20v20m0-20h-20m20 20h20m-20 0v20m0-20h-20m40 0v20h-20m0 0h-20m20 0v20m-20-80v20m0-20v-20m0 20h-20m20 20v20m0-20h-20m20-40h-20m20 0v-20m0 80v20m0-20h-20m20 20v20m0-20h-20m40 20h-20m20 0v20h-20m0-20h-20m20 0v20m-20-20v20m0-20h-20m20 0v-20m20 40h-20m0 0h-20m-80-40h20m-20 0v20h20m-20-20v-20m0 20h-20v-20m40 20v20m0-20v-20m0 20h20m-20 20h20m0 0h20m-20 0v20h20m-20-20v-20m20 20v20m0-20v-20m0 20h20m-20 20h20m-80-80h20m-20 0v20m0-20h-20m20 0v-20m20 20v20m0-20v-20m0 20h20m-20 20h-20m20 0h20m-40 0h-20m0-20v20m0-20v-20m20 0h20m-20 0v-20m0 20h-20m40 0v-20m0 20h20m-60-20h20m-20 0v20m0-20v-20m20 20v-20m0 20h20m-40-20h20m-20 0v-20m20 20h20m-20 0v-20m20 20v20m0-20v-20m0 20h20m-20 20h20m-60-40h20m0 0h20m0 0h20m0 100v20m0-20v-20m0 20h20m-20 20h20m0 0v-20m0 20h20m0 20v20m0-20v-20m-40-120v20m0-20h20m-20 20v20m0-20h20m-20 20v20m0-20h20m-20 20v20m0-20h20m-20 20h20m0-100v20m0 0v20m0 0v20m0-20h20v20m-20 0v20m0-20h20m-20 20v20m0-20h20m-20 20v20m0-20h20m-20 20h20m0-60v20m0-20h20m-20 20v20m0-20h20m-20 20v20m0-20h20m-20 20v20m0-20h20m-20 20h20m0-80v20m0 0v20m0 0v20m0 0v20"/></svg>

<svg width="437" height="483" viewBox="0 0 437 483" fill="none" xmlns="http://www.w3.org/2000/svg">
<path d="M239 191H259V211H239V191Z" fill="#EDEDED"/>
<path d="M259 211H279V231H259V211Z" fill="#EDEDED"/>
<path d="M259 231H279V251H259V231Z" fill="#EDEDED"/>
<path d="M239 231H259V251H239V231Z" fill="#EDEDED"/>
<path d="M239 211H259V231H239V211Z" fill="#EDEDED"/>
<path d="M219 211H239V231H219V211Z" fill="#EDEDED"/>
<path d="M219 191H239V211H219V191Z" fill="#EDEDED"/>
<path d="M219 171H239V191H219V171Z" fill="#EDEDED"/>
<path d="M239 191H259V211M239 191V211M239 191H219M239 191V171H219V191M259 211H239M259 211H279V231M259 211V231M239 211V231M239 211H219M279 231H259M279 231V251H259M259 231V251M259 231H239M259 251H239V231M239 231H219V211M219 211V191" stroke="#EDEDED" stroke-width="5"/>
<path d="M199 371H219V391H199V371Z" fill="#949494"/>
<path d="M259 371H279V391H259V371Z" fill="#949494"/>
<path d="M239 371H259V391H239V371Z" fill="#949494"/>
<path d="M219 371H239V391H219V371Z" fill="#949494"/>
<path d="M179 351H199V371H179V351Z" fill="#949494"/>
<path d="M159 351H179V371H159V351Z" fill="#949494"/>
<path d="M159 371H179V391H159V371Z" fill="#949494"/>
<path d="M139 331H159V351H139V331Z" fill="#949494"/>
<path d="M139 351H159V371H139V351Z" fill="#949494"/>
<path d="M119 311H139V331H119V311Z" fill="#949494"/>
<path d="M119 291H139V311H119V291Z" fill="#949494"/>
<path d="M119 211H139V231H119V211Z" fill="#949494"/>
<path d="M119 271H139V291H119V271Z" fill="#949494"/>
<path d="M119 251H139V271H119V251Z" fill="#949494"/>
<path d="M119 231H139V251H119V231Z" fill="#949494"/>
<path d="M179 371H199V391H179V371Z" fill="#949494"/>
<path d="M199 371H219M199 371V391M199 371V351H179M199 371H179M219 371V391M219 371H239M219 391H199M219 391H239M199 391H179M259 371H279V391H259M259 371V391M259 371H239M259 391H239M239 371V391M179 351V371M179 351H159M179 371H159M179 371V391M159 351V371M159 351V331H139M159 351H139M159 371V391H179M159 371H139V351M139 331V351M139 331V311M139 331H119V311M119 311H139M119 311V291M139 311V291M119 291H139M119 291V271M139 291V271M139 231V211H119V231M139 231H119M139 231V251M119 231V251M119 271H139M119 271V251M139 271V251M119 251H139" stroke="#949494" stroke-width="5"/>
<path d="M139 171H159V191H139V171Z" fill="#D9D9D9"/>
<path d="M179 151H199V171H179V151Z" fill="#D9D9D9"/>
<path d="M179 171H199V191H179V171Z" fill="#D9D9D9"/>
<path d="M199 151H219V171H199V151Z" fill="#D9D9D9"/>
<path d="M239 151H259V171H239V151Z" fill="#D9D9D9"/>
<path d="M259 151H279V171H259V151Z" fill="#D9D9D9"/>
<path d="M259 171H279V191H259V171Z" fill="#D9D9D9"/>
<path d="M279 171H299V191H279V171Z" fill="#D9D9D9"/>
<path d="M279 191H299V211H279V191Z" fill="#D9D9D9"/>
<path d="M299 251H319V271H299V251Z" fill="#D9D9D9"/>
<path d="M299 231H319V251H299V231Z" fill="#D9D9D9"/>
<path d="M299 271H319V291H299V271Z" fill="#D9D9D9"/>
<path d="M299 311H319V331H299V311Z" fill="#D9D9D9"/>
<path d="M299 211H319V231H299V211Z" fill="#D9D9D9"/>
<path d="M299 291H319V311H299V291Z" fill="#D9D9D9"/>
<path d="M279 271H299V291H279V271Z" fill="#D9D9D9"/>
<path d="M279 251H299V271H279V251Z" fill="#D9D9D9"/>
<path d="M279 291H299V311H279V291Z" fill="#D9D9D9"/>
<path d="M279 331H299V351H279V331Z" fill="#D9D9D9"/>
<path d="M259 351H279V371H259V351Z" fill="#D9D9D9"/>
<path d="M279 351H299V371H279V351Z" fill="#D9D9D9"/>
<path d="M159 331H179V351H159V331Z" fill="#D9D9D9"/>
<path d="M199 351H219V371H199V351Z" fill="#D9D9D9"/>
<path d="M159 291H179V311H159V291Z" fill="#D9D9D9"/>
<path d="M139 291H159V311H139V291Z" fill="#D9D9D9"/>
<path d="M159 271H179V291H159V271Z" fill="#D9D9D9"/>
<path d="M139 251H159V271H139V251Z" fill="#D9D9D9"/>
<path d="M139 231H159V251H139V231Z" fill="#D9D9D9"/>
<path d="M159 231H179V251H159V231Z" fill="#D9D9D9"/>
<path d="M139 211H159V231H139V211Z" fill="#D9D9D9"/>
<path d="M159 211H179V231H159V211Z" fill="#D9D9D9"/>
<path d="M139 191H159V211H139V191Z" fill="#D9D9D9"/>
<path d="M159 251H179V271H159V251Z" fill="#D9D9D9"/>
<path d="M159 191H179V211H159V191Z" fill="#D9D9D9"/>
<path d="M139 271H159V291H139V271Z" fill="#D9D9D9"/>
<path d="M159 311H179V331H159V311Z" fill="#D9D9D9"/>
<path d="M139 311H159V331H139V311Z" fill="#D9D9D9"/>
<path d="M179 311H199V331H179V311Z" fill="#D9D9D9"/>
<path d="M179 331H199V351H179V331Z" fill="#D9D9D9"/>
<path d="M199 331H219V351H199V331Z" fill="#D9D9D9"/>
<path d="M219 351H239V371H219V351Z" fill="#D9D9D9"/>
<path d="M239 351H259V371H239V351Z" fill="#D9D9D9"/>
<path d="M279 311H299V331H279V311Z" fill="#D9D9D9"/>
<path d="M179 191H199V211H179V191Z" fill="#D9D9D9"/>
<path d="M179 231H199V251H179V231Z" fill="#D9D9D9"/>
<path d="M179 211H199V231H179V211Z" fill="#D9D9D9"/>
<path d="M179 251H199V271H179V251Z" fill="#D9D9D9"/>
<path d="M179 291H199V311H179V291Z" fill="#D9D9D9"/>
<path d="M179 271H199V291H179V271Z" fill="#D9D9D9"/>
<path d="M199 191H219V211H199V191Z" fill="#D9D9D9"/>
<path d="M199 211H219V231H199V211Z" fill="#D9D9D9"/>
<path d="M199 251H219V271H199V251Z" fill="#D9D9D9"/>
<path d="M199 231H219V251H199V231Z" fill="#D9D9D9"/>
<path d="M199 271H219V291H199V271Z" fill="#D9D9D9"/>
<path d="M199 311H219V331H199V311Z" fill="#D9D9D9"/>
<path d="M199 291H219V311H199V291Z" fill="#D9D9D9"/>
<path d="M219 231H239V251H219V231Z" fill="#D9D9D9"/>
<path d="M219 271H239V291H219V271Z" fill="#D9D9D9"/>
<path d="M219 251H239V271H219V251Z" fill="#D9D9D9"/>
<path d="M219 291H239V311H219V291Z" fill="#D9D9D9"/>
<path d="M219 331H239V351H219V331Z" fill="#D9D9D9"/>
<path d="M219 311H239V331H219V311Z" fill="#D9D9D9"/>
<path d="M239 251H259V271H239V251Z" fill="#D9D9D9"/>
<path d="M239 291H259V311H239V291Z" fill="#D9D9D9"/>
<path d="M239 271H259V291H239V271Z" fill="#D9D9D9"/>
<path d="M239 331H259V351H239V331Z" fill="#D9D9D9"/>
<path d="M239 311H259V331H239V311Z" fill="#D9D9D9"/>
<path d="M259 251H279V271H259V251Z" fill="#D9D9D9"/>
<path d="M259 271H279V291H259V271Z" fill="#D9D9D9"/>
<path d="M259 311H279V331H259V311Z" fill="#D9D9D9"/>
<path d="M259 331H279V351H259V331Z" fill="#D9D9D9"/>
<path d="M259 291H279V311H259V291Z" fill="#D9D9D9"/>
<path d="M199 171H219V191H199V171Z" fill="#D9D9D9"/>
<path d="M219 151H239V171H219V151Z" fill="#D9D9D9"/>
<path d="M159 151H179V171H159V151Z" fill="#D9D9D9"/>
<path d="M159 171H179V191H159V171Z" fill="#D9D9D9"/>
<path d="M239 171H259V191H239V171Z" fill="#D9D9D9"/>
<path d="M259 191H279V211H259V191Z" fill="#D9D9D9"/>
<path d="M279 211H299V231H279V211Z" fill="#D9D9D9"/>
<path d="M279 231H299V251H279V231Z" fill="#D9D9D9"/>
<path d="M159 171H139V191M159 171V191M159 171H179M159 171V151H179M159 191H139M159 191V211M159 191H179M139 191V211M179 151H199M179 151V171M199 151V171M199 151H219M199 171H179M199 171V191M199 171H219M179 171V191M199 191H179M199 191V211M199 191H219M179 191V211M219 151V171M219 151H239M219 171V191M219 171H239M239 151H259M239 151V171M259 151V171M259 151H279V171M259 171H239M259 171H279M259 171V191M239 171V191H259M279 171V191M279 171H299V191M279 191H259M279 191H299M279 191V211M259 191V211H279M299 191V211M299 211H279M299 211H319V231M299 211V231M279 211V231M299 251H319M299 251V271M299 251V231M299 251H279M319 251V271M319 251V231M319 271H299M319 271V291M299 271V291M299 271H279M299 231H319M299 231H279M319 291H299M319 291V311M299 291V311M299 291H279M299 311H319M299 311V331M299 311H279M319 311V331H299M299 331H279M299 331V351M279 271V291M279 271V251M279 271H259M279 291V311M279 291H259M279 251H259M279 251V231M279 311V331M279 311H259M279 331V351M279 331H259M299 351H279M299 351V371H279M279 351H259M279 351V371M259 351V371M259 351H239M259 351V331M279 371H259M259 371H239M159 331H179M159 331V351H179M159 331V311M159 331H139V311M179 331V351M179 331V311M179 331H199M179 351H199M199 351H219M199 351V371H219M199 351V331M219 351V371M219 351V331M219 351H239M219 371H239M159 291H179M159 291V311M159 291H139M159 291V271M179 291V311M179 291V271M179 291H199M179 311H159M179 311H199M159 311H139M139 291V311M139 291V271M159 271H179M159 271V251M159 271H139M179 271V251M179 271H199M139 251H159M139 251V271M139 251V231M159 251V231M159 251H179M139 231H159M139 231V211M159 231H179M159 231V211M179 231V251M179 231V211M179 231H199M179 251H199M139 211H159M159 211H179M179 211H199M199 311V331M199 311V291M199 311H219M199 331H219M219 331V311M219 331H239M239 351V371M239 351V331M199 211V231M199 211H219M199 231V251M199 231H219M199 251V271M199 251H219M199 271V291M199 271H219M199 291H219M219 191V211M219 211V231M219 231V251M219 231H239V251M219 251V271M219 251H239M219 271V291M219 271H239M219 291V311M219 291H239M219 311H239M239 251V271M239 251H259M239 271V291M239 271H259M239 291V311M239 291H259M239 311V331M239 311H259M239 331H259M259 251V271M259 271V291M259 291V311M259 311V331" stroke="#D9D9D9" stroke-width="5"/>
</svg>
